X: 31564
T: Paidín Ó Raifeartaigh
R: jig
M: 6/8
K: Gmajor
c|BGE D2E|GAB cBA|BGE D2E|GAG G2c|
BGE D2E|GAB cBA|ged B2G|AGF G2:|
|:D|GBB GBB|GBB cBA|[M:9/8] GBB GBG GED|
[M:6/8] GBB GBB|GBB cBA|ged B2G|AGF G2:|

